Sources/FrostedUI/Resources/Icons.xcassets/calendarXSize16.imageset/calendar-x-size-16.svg

<svg
  width="16"
  height="16"
  viewBox="0 0 16 16"
  fill="none"
  xmlns="http://www.w3.org/2000/svg"
  data-fui-icon="true"
>
  <path
    d="M5.16667 3.16671V1.83337M10.8333 3.16671V1.83337M6.33201 6.66671L9.66647 10.0012M9.6678 6.66671L6.33333 10.0012M3.83333 13.5H12.1667C12.9031 13.5 13.5 12.9031 13.5 12.1667V4.50004C13.5 3.76366 12.9031 3.16671 12.1667 3.16671H3.83333C3.09695 3.16671 2.5 3.76366 2.5 4.50004V12.1667C2.5 12.9031 3.09695 13.5 3.83333 13.5Z"
    stroke="currentColor"
    stroke-width="1.5"
    stroke-linecap="round"
    stroke-linejoin="round"
  />
</svg>

<svg xmlns="http://www.w3.org/2000/svg" width="16" height="16" fill="none" data-fui-icon="true" viewBox="0 0 16 16"><path stroke="currentColor" stroke-linecap="round" stroke-linejoin="round" stroke-width="1.5" d="M5.167 3.167V1.833m5.666 1.334V1.833M6.332 6.667 9.666 10m.002-3.334L6.333 10m-2.5 3.499h8.334c.736 0 1.333-.597 1.333-1.333V4.5c0-.736-.597-1.333-1.333-1.333H3.833c-.736 0-1.333.597-1.333 1.333v7.667c0 .736.597 1.333 1.333 1.333"/></svg>
